X:1
T:Banks of the Ilen
R:reel
Z:Jack Gilder
M:C|
K:D
FDFA d2fd|~d2fd ecAG|FDFA defd|1 ecAF G2AG:|2 ecAF G4||
~f3a g2fg|abag fdde|~f3a g2fg|abaf g2fg|
~a3f gfeg|fdde dBAG|FDFA defd|1 ecAF G4:|2 ecAF G2AG||
